X: 12367
T: Famous Ballymote, The
R: reel
M: 4/4
K: Dmixolydian
||FDAD FAAB|cABG EFGE|FDAD FAAB|cAGE ED D2:|
FDFA d2 ed|cABG EFGE|1 FDFA d2 ed|cAGE ED D2:|2 FDFA df ed|cAGE ED D2||

